public/images/hashed/8b9cabb78c34894294e92911a2922155.svg

<?xml version="1.0" encoding="UTF-8"?>
<svg width="80px" height="80px" viewBox="0 0 80 80" version="1.1" xmlns="http://www.w3.org/2000/svg" xmlns:xlink="http://www.w3.org/1999/xlink">
    <!-- Generator: Sketch 64 (93537) - https://sketch.com -->
    <title>Icon-Architecture/64/Arch_AWS-IoT-SiteWise_64</title>
    <desc>Created with Sketch.</desc>
    <defs>
        <linearGradient x1="0%" y1="100%" x2="100%" y2="0%" id="linearGradient-1">
            <stop stop-color="#1B660F" offset="0%"></stop>
            <stop stop-color="#6CAE3E" offset="100%"></stop>
        </linearGradient>
    </defs>
    <g id="Icon-Architecture/64/Arch_AWS-IoT-SiteWise_64" stroke="none" stroke-width="1" fill="none" fill-rule="evenodd">
        <g id="Icon-Architecture-BG/64/Internet-of-Things" fill="url(#linearGradient-1)">
            <rect id="Rectangle" x="0" y="0" width="80" height="80"></rect>
        </g>
        <path d="M57.9998228,48.912 L53.2018526,46.856 L54.6808434,45.978 C55.4538386,46.607 56.4278326,47 57.4998259,47 C58.7078185,47 59.8018117,46.516 60.6098067,45.738 L62.7167936,46.891 L57.9998228,48.912 Z M57.4998259,40 C58.8788174,40 59.9998104,41.121 59.9998104,42.5 C59.9998104,43.878 58.8788174,45 57.4998259,45 C56.1208345,45 54.9998414,43.878 54.9998414,42.5 C54.9998414,41.121 56.1208345,40 57.4998259,40 L57.4998259,40 Z M39.9999344,36 C36.1409583,36 32.9999778,32.86 32.9999778,29 C32.9999778,25.14 36.1409583,22 39.9999344,22 C43.8589105,22 46.999891,25.14 46.999891,29 C46.999891,32.86 43.8589105,36 39.9999344,36 L39.9999344,36 Z M42.9999158,51 C42.9999158,52.654 41.6539241,54 39.9999344,54 C38.3459447,54 36.999953,52.654 36.999953,51 C36.999953,49.346 38.3459447,48 39.9999344,48 C41.6539241,48 42.9999158,49.346 42.9999158,51 L42.9999158,51 Z M39.9999344,58.848 L35.1179647,56.058 L37.1079523,55.064 C37.9269472,55.648 38.9209411,56 39.9999344,56 C41.0789277,56 42.0729216,55.648 42.8919165,55.064 L44.8819041,56.058 L39.9999344,58.848 Z M22.0990453,48.912 L17.319075,46.894 L19.4260619,45.768 C20.2310569,46.526 21.3090502,47 22.5000429,47 C23.5840361,47 24.5650301,46.599 25.3430252,45.959 L26.826016,46.855 L22.0990453,48.912 Z M22.5000429,40 C23.8790343,40 25.0000274,41.121 25.0000274,42.5 C25.0000274,43.878 23.8790343,45 22.5000429,45 C21.1210514,45 20.0000584,43.878 20.0000584,42.5 C20.0000584,41.121 21.1210514,40 22.5000429,40 L22.5000429,40 Z M65.4797765,46.122 L61.7057999,44.057 C61.8867988,43.57 61.9997981,43.049 61.9997981,42.5 C61.9997981,40.018 59.9808106,38 57.4998259,38 C56.6018315,38 55.7678367,38.271 55.062841,38.727 L48.1888836,32.712 C48.7048804,31.579 48.9998786,30.324 48.9998786,29 C48.9998786,24.037 44.9629036,20 39.9999344,20 C35.0369652,20 31,24.037 31,29 C31,30.324 31.2949884,31.579 31.8109852,32.712 L24.9370278,38.727 C24.2320321,38.271 23.3980373,38 22.5000429,38 C20.0190582,38 18.0000707,40.018 18.0000707,42.5 C18.0000707,43.064 18.11607,43.6 18.3070688,44.099 L14.5280923,46.118 C14.1880944,46.3 13.9830956,46.661 14.0010955,47.045 C14.0190954,47.431 14.256094,47.771 14.6110918,47.921 L21.7160477,50.921 C21.840047,50.974 21.9730461,51 22.1040453,51 C22.2400445,51 22.3760436,50.972 22.5040428,50.917 L29.3990001,47.917 C29.741998,47.767 29.9729965,47.439 29.9979964,47.066 C30.0219962,46.693 29.8369974,46.337 29.5179994,46.144 L26.5810176,44.37 C26.8440159,43.798 27.000015,43.169 27.000015,42.5 C27.000015,41.642 26.7460165,40.849 26.3280191,40.166 L32.8569787,34.454 C34.3119697,36.354 36.4999561,37.663 38.9999406,37.941 L38.9999406,46.101 C36.7209547,46.566 34.9999654,48.585 34.9999654,51 C34.9999654,51.926 35.2699637,52.782 35.709961,53.527 L32.5529806,55.105 C32.2229826,55.27 32.0109839,55.603 31.999984,55.972 C31.989984,56.341 32.1839828,56.685 32.5039809,56.868 L39.5039375,60.868 C39.6569365,60.956 39.8289355,61 39.9999344,61 C40.1709333,61 40.3429323,60.956 40.4959313,60.868 L47.4958879,56.868 C47.815886,56.685 48.0098848,56.341 47.9998848,55.972 C47.9888849,55.603 47.7768862,55.27 47.4468882,55.105 L44.2899078,53.527 C44.7299051,52.782 44.9999034,51.926 44.9999034,51 C44.9999034,48.585 43.2789141,46.566 40.9999282,46.101 L40.9999282,37.941 C43.4999127,37.663 45.6878991,36.354 47.1428901,34.454 L53.6718497,40.166 C53.2538523,40.849 52.9998538,41.642 52.9998538,42.5 C52.9998538,43.179 53.1618528,43.816 53.4318512,44.393 L50.4888694,46.14 C50.1658714,46.332 49.9778726,46.69 50.0018724,47.065 C50.0258723,47.441 50.2598708,47.771 50.6058687,47.919 L57.6058253,50.919 C57.7308245,50.973 57.8658237,51 57.9998228,51 C58.133822,51 58.2688212,50.973 58.3938204,50.919 L65.393777,47.919 C65.7457748,47.768 65.9797734,47.43 65.9987733,47.048 C66.0177731,46.665 65.8147744,46.307 65.4797765,46.122 L65.4797765,46.122 Z" id="AWS-IoT-SiteWise_Icon_64_Squid" fill="#FFFFFF"></path>
    </g>
</svg>

<svg xmlns="http://www.w3.org/2000/svg" width="80" height="80"><defs><linearGradient id="a" x1="0%" x2="100%" y1="100%" y2="0%"><stop offset="0%" stop-color="#1B660F"/><stop offset="100%" stop-color="#6CAE3E"/></linearGradient></defs><g fill="none" fill-rule="evenodd"><path fill="url(#a)" d="M0 0h80v80H0z"/><path fill="#FFF" d="m58 48.912-4.798-2.056 1.479-.878A4.452 4.452 0 0 0 57.5 47a4.472 4.472 0 0 0 3.11-1.262l2.107 1.153L58 48.912ZM57.5 40c1.379 0 2.5 1.121 2.5 2.5 0 1.378-1.121 2.5-2.5 2.5a2.503 2.503 0 0 1-2.5-2.5c0-1.379 1.12-2.5 2.5-2.5ZM40 36c-3.859 0-7-3.14-7-7s3.141-7 7-7 7 3.14 7 7-3.141 7-7 7Zm3 15c0 1.654-1.346 3-3 3s-3-1.346-3-3 1.346-3 3-3 3 1.346 3 3Zm-3 7.848-4.882-2.79 1.99-.994A4.963 4.963 0 0 0 40 56a4.963 4.963 0 0 0 2.892-.936l1.99.994L40 58.848Zm-17.901-9.936-4.78-2.018 2.107-1.126A4.473 4.473 0 0 0 22.5 47a4.458 4.458 0 0 0 2.843-1.041l1.483.896-4.727 2.057ZM22.5 40c1.379 0 2.5 1.121 2.5 2.5 0 1.378-1.121 2.5-2.5 2.5a2.503 2.503 0 0 1-2.5-2.5c0-1.379 1.121-2.5 2.5-2.5Zm42.98 6.122-3.774-2.065A4.454 4.454 0 0 0 62 42.5c0-2.482-2.02-4.5-4.5-4.5-.898 0-1.732.271-2.437.727l-6.874-6.015a8.932 8.932 0 0 0 .81-3.712c0-4.963-4.036-9-9-9C35.038 20 31 24.037 31 29c0 1.324.295 2.579.811 3.712l-6.874 6.015A4.472 4.472 0 0 0 22.5 38a4.505 4.505 0 0 0-4.5 4.5c0 .564.116 1.1.307 1.599l-3.779 2.019a1 1 0 0 0 .083 1.803l7.105 3a.99.99 0 0 0 .788-.004l6.895-3a1.002 1.002 0 0 0 .119-1.773l-2.937-1.774A4.457 4.457 0 0 0 27 42.5c0-.858-.254-1.651-.672-2.334l6.529-5.712A8.994 8.994 0 0 0 39 37.941v8.16A5.009 5.009 0 0 0 35 51c0 .926.27 1.782.71 2.527l-3.157 1.578a1.002 1.002 0 0 0-.049 1.763l7 4a.996.996 0 0 0 .992 0l7-4a1.001 1.001 0 0 0-.05-1.763l-3.156-1.578c.44-.745.71-1.601.71-2.527a5.009 5.009 0 0 0-4-4.899v-8.16a8.994 8.994 0 0 0 6.143-3.487l6.529 5.712A4.452 4.452 0 0 0 53 42.5c0 .679.162 1.316.432 1.893l-2.943 1.747a1.002 1.002 0 0 0 .117 1.779l7 3a.996.996 0 0 0 .788 0l7-3a1.001 1.001 0 0 0 .086-1.797Z"/></g></svg>
